icons/modern/police-car-light.svg

<svg width="32" height="32" viewBox="0 0 32 32" fill="none" xmlns="http://www.w3.org/2000/svg">
<g filter="url(#filter0_i_18_11962)">
<path d="M9.86385 14.8692L6.875 26.625H24.875L22.1361 14.8692C21.4707 12.0175 18.9284 10 16 10C13.0716 10 10.5293 12.0175 9.86385 14.8692Z" fill="url(#paint0_linear_18_11962)"/>
</g>
<path d="M25.8654 30H6.13464C5.51209 30 5 29.517 5 28.9299V26.0701C5 25.483 5.51209 25 6.13464 25H25.8654C26.4879 25 27 25.483 27 26.0701V28.9299C27 29.517 26.498 30 25.8654 30Z" fill="url(#paint1_linear_18_11962)"/>
<path d="M25.8654 30H6.13464C5.51209 30 5 29.517 5 28.9299V26.0701C5 25.483 5.51209 25 6.13464 25H25.8654C26.4879 25 27 25.483 27 26.0701V28.9299C27 29.517 26.498 30 25.8654 30Z" fill="url(#paint2_linear_18_11962)"/>
<path d="M25.8654 30H6.13464C5.51209 30 5 29.517 5 28.9299V26.0701C5 25.483 5.51209 25 6.13464 25H25.8654C26.4879 25 27 25.483 27 26.0701V28.9299C27 29.517 26.498 30 25.8654 30Z" fill="url(#paint3_linear_18_11962)"/>
<path d="M25.8654 30H6.13464C5.51209 30 5 29.517 5 28.9299V26.0701C5 25.483 5.51209 25 6.13464 25H25.8654C26.4879 25 27 25.483 27 26.0701V28.9299C27 29.517 26.498 30 25.8654 30Z" fill="url(#paint4_linear_18_11962)"/>
<path d="M19.8953 15.8208C20.6935 15.36 20.8705 14.1721 20.2906 13.1677C19.7107 12.1633 18.5935 11.7226 17.7953 12.1835C16.9971 12.6443 16.8201 13.8322 17.4 14.8366C17.9799 15.841 19.0971 16.2817 19.8953 15.8208Z" fill="url(#paint5_linear_18_11962)"/>
<g filter="url(#filter1_i_18_11962)">
<rect x="15" y="2" width="2" height="6" rx="1" fill="url(#paint6_linear_18_11962)"/>
<rect x="15" y="2" width="2" height="6" rx="1" fill="url(#paint7_linear_18_11962)"/>
<rect x="15" y="2" width="2" height="6" rx="1" fill="url(#paint8_linear_18_11962)"/>
</g>
<g filter="url(#filter2_i_18_11962)">
<path d="M24.2322 5.3033C24.6366 4.8989 25.2923 4.8989 25.6967 5.3033C26.1011 5.7077 26.1011 6.36337 25.6967 6.76777L22.7678 9.6967C22.3634 10.1011 21.7077 10.1011 21.3033 9.6967C20.8989 9.2923 20.8989 8.63663 21.3033 8.23223L24.2322 5.3033Z" fill="url(#paint9_linear_18_11962)"/>
<path d="M24.2322 5.3033C24.6366 4.8989 25.2923 4.8989 25.6967 5.3033C26.1011 5.7077 26.1011 6.36337 25.6967 6.76777L22.7678 9.6967C22.3634 10.1011 21.7077 10.1011 21.3033 9.6967C20.8989 9.2923 20.8989 8.63663 21.3033 8.23223L24.2322 5.3033Z" fill="url(#paint10_linear_18_11962)"/>
<path d="M24.2322 5.3033C24.6366 4.8989 25.2923 4.8989 25.6967 5.3033C26.1011 5.7077 26.1011 6.36337 25.6967 6.76777L22.7678 9.6967C22.3634 10.1011 21.7077 10.1011 21.3033 9.6967C20.8989 9.2923 20.8989 8.63663 21.3033 8.23223L24.2322 5.3033Z" fill="url(#paint11_linear_18_11962)"/>
</g>
<g filter="url(#filter3_i_18_11962)">
<path d="M7.76777 5.3033C7.36337 4.8989 6.7077 4.8989 6.3033 5.3033C5.8989 5.7077 5.8989 6.36337 6.3033 6.76777L9.23223 9.6967C9.63663 10.1011 10.2923 10.1011 10.6967 9.6967C11.1011 9.2923 11.1011 8.63663 10.6967 8.23223L7.76777 5.3033Z" fill="url(#paint12_linear_18_11962)"/>
</g>
<g filter="url(#filter4_f_18_11962)">
<path d="M26.3438 25.75H11.75" stroke="url(#paint13_linear_18_11962)" stroke-width="0.5"/>
</g>
<defs>
<filter id="filter0_i_18_11962" x="6.875" y="10" width="19.5" height="16.625" filterUnits="userSpaceOnUse" color-interpolation-filters="sRGB">
<feFlood flood-opacity="0" result="BackgroundImageFix"/>
<feBlend mode="normal" in="SourceGraphic" in2="BackgroundImageFix" result="shape"/>
<feColorMatrix in="SourceAlpha" type="matrix" values="0 0 0 0 0 0 0 0 0 0 0 0 0 0 0 0 0 0 127 0" result="hardAlpha"/>
<feOffset dx="1.5"/>
<feGaussianBlur stdDeviation="1.25"/>
<feComposite in2="hardAlpha" operator="arithmetic" k2="-1" k3="1"/>
<feColorMatrix type="matrix" values="0 0 0 0 0.611765 0 0 0 0 0.27451 0 0 0 0 0.286275 0 0 0 1 0"/>
<feBlend mode="normal" in2="shape" result="effect1_innerShadow_18_11962"/>
</filter>
<filter id="filter1_i_18_11962" x="15" y="1.75" width="2.25" height="6.25" filterUnits="userSpaceOnUse" color-interpolation-filters="sRGB">
<feFlood flood-opacity="0" result="BackgroundImageFix"/>
<feBlend mode="normal" in="SourceGraphic" in2="BackgroundImageFix" result="shape"/>
<feColorMatrix in="SourceAlpha" type="matrix" values="0 0 0 0 0 0 0 0 0 0 0 0 0 0 0 0 0 0 127 0" result="hardAlpha"/>
<feOffset dx="0.25" dy="-0.25"/>
<feGaussianBlur stdDeviation="0.3"/>
<feComposite in2="hardAlpha" operator="arithmetic" k2="-1" k3="1"/>
<feColorMatrix type="matrix" values="0 0 0 0 0.784314 0 0 0 0 0.443137 0 0 0 0 0.372549 0 0 0 1 0"/>
<feBlend mode="normal" in2="shape" result="effect1_innerShadow_18_11962"/>
</filter>
<filter id="filter2_i_18_11962" x="21" y="4.75" width="5.25" height="5.25" filterUnits="userSpaceOnUse" color-interpolation-filters="sRGB">
<feFlood flood-opacity="0" result="BackgroundImageFix"/>
<feBlend mode="normal" in="SourceGraphic" in2="BackgroundImageFix" result="shape"/>
<feColorMatrix in="SourceAlpha" type="matrix" values="0 0 0 0 0 0 0 0 0 0 0 0 0 0 0 0 0 0 127 0" result="hardAlpha"/>
<feOffset dx="0.25" dy="-0.25"/>
<feGaussianBlur stdDeviation="0.3"/>
<feComposite in2="hardAlpha" operator="arithmetic" k2="-1" k3="1"/>
<feColorMatrix type="matrix" values="0 0 0 0 0.784314 0 0 0 0 0.443137 0 0 0 0 0.372549 0 0 0 1 0"/>
<feBlend mode="normal" in2="shape" result="effect1_innerShadow_18_11962"/>
</filter>
<filter id="filter3_i_18_11962" x="6" y="4.75" width="5.25" height="5.25" filterUnits="userSpaceOnUse" color-interpolation-filters="sRGB">
<feFlood flood-opacity="0" result="BackgroundImageFix"/>
<feBlend mode="normal" in="SourceGraphic" in2="BackgroundImageFix" result="shape"/>
<feColorMatrix in="SourceAlpha" type="matrix" values="0 0 0 0 0 0 0 0 0 0 0 0 0 0 0 0 0 0 127 0" result="hardAlpha"/>
<feOffset dx="0.25" dy="-0.25"/>
<feGaussianBlur stdDeviation="0.3"/>
<feComposite in2="hardAlpha" operator="arithmetic" k2="-1" k3="1"/>
<feColorMatrix type="matrix" values="0 0 0 0 0.784314 0 0 0 0 0.443137 0 0 0 0 0.372549 0 0 0 1 0"/>
<feBlend mode="normal" in2="shape" result="effect1_innerShadow_18_11962"/>
</filter>
<filter id="filter4_f_18_11962" x="11.25" y="25" width="15.5938" height="1.5" filterUnits="userSpaceOnUse" color-interpolation-filters="sRGB">
<feFlood flood-opacity="0" result="BackgroundImageFix"/>
<feBlend mode="normal" in="SourceGraphic" in2="BackgroundImageFix" result="shape"/>
<feGaussianBlur stdDeviation="0.25" result="effect1_foregroundBlur_18_11962"/>
</filter>
<linearGradient id="paint0_linear_18_11962" x1="11.0625" y1="20.75" x2="23.8125" y2="20.75" gradientUnits="userSpaceOnUse">
<stop stop-color="#F8312F"/>
<stop offset="1" stop-color="#FF5BA6"/>
</linearGradient>
<linearGradient id="paint1_linear_18_11962" x1="5.3125" y1="27.5" x2="25.875" y2="27.5" gradientUnits="userSpaceOnUse">
<stop stop-color="#9186A2"/>
<stop offset="0.173252" stop-color="#A88EC7"/>
<stop offset="1" stop-color="#EEE0FF"/>
</linearGradient>
<linearGradient id="paint2_linear_18_11962" x1="27" y1="27.5" x2="25.25" y2="27.5" gradientUnits="userSpaceOnUse">
<stop stop-color="#DCD5E7"/>
<stop offset="1" stop-color="#DCD5E7" stop-opacity="0"/>
</linearGradient>
<linearGradient id="paint3_linear_18_11962" x1="16" y1="30" x2="16" y2="28.875" gradientUnits="userSpaceOnUse">
<stop stop-color="#CC8BFF"/>
<stop offset="1" stop-color="#CC8BFF" stop-opacity="0"/>
</linearGradient>
<linearGradient id="paint4_linear_18_11962" x1="16" y1="24" x2="16" y2="25.9375" gradientUnits="userSpaceOnUse">
<stop stop-color="#D8CFD4"/>
<stop offset="1" stop-color="#D8CFD4" stop-opacity="0"/>
</linearGradient>
<linearGradient id="paint5_linear_18_11962" x1="18.375" y1="12.3125" x2="18.5625" y2="15.875" gradientUnits="userSpaceOnUse">
<stop stop-color="#FFF8FF"/>
<stop offset="1" stop-color="#FFF8FF" stop-opacity="0"/>
</linearGradient>
<linearGradient id="paint6_linear_18_11962" x1="15" y1="5" x2="17" y2="5" gradientUnits="userSpaceOnUse">
<stop stop-color="#F19E41"/>
<stop offset="1" stop-color="#FFF657"/>
</linearGradient>
<linearGradient id="paint7_linear_18_11962" x1="16" y1="2" x2="16" y2="3.06899" gradientUnits="userSpaceOnUse">
<stop stop-color="#FFF053"/>
<stop offset="1" stop-color="#FFF053" stop-opacity="0"/>
</linearGradient>
<linearGradient id="paint8_linear_18_11962" x1="16.6242" y1="8.31787" x2="16.6242" y2="7.03041" gradientUnits="userSpaceOnUse">
<stop stop-color="#EE8228"/>
<stop offset="1" stop-color="#EE8228" stop-opacity="0"/>
</linearGradient>
<linearGradient id="paint9_linear_18_11962" x1="22.483" y1="6.81423" x2="24.1563" y2="8.4876" gradientUnits="userSpaceOnUse">
<stop stop-color="#F19E41"/>
<stop offset="1" stop-color="#FFF657"/>
</linearGradient>
<linearGradient id="paint10_linear_18_11962" x1="26.2662" y1="5.45613" x2="25.0537" y2="6.66872" gradientUnits="userSpaceOnUse">
<stop offset="0.2" stop-color="#FFF45D"/>
<stop offset="1" stop-color="#FFF45D" stop-opacity="0"/>
</linearGradient>
<linearGradient id="paint11_linear_18_11962" x1="21.3779" y1="10" x2="22.2692" y2="9.07715" gradientUnits="userSpaceOnUse">
<stop stop-color="#F56A34"/>
<stop offset="1" stop-color="#F56A34" stop-opacity="0"/>
</linearGradient>
<linearGradient id="paint12_linear_18_11962" x1="7.67187" y1="8.20311" x2="8.98437" y2="6.89061" gradientUnits="userSpaceOnUse">
<stop stop-color="#F19E41"/>
<stop offset="1" stop-color="#FFF657"/>
</linearGradient>
<linearGradient id="paint13_linear_18_11962" x1="12.3125" y1="26.125" x2="26.6875" y2="26.125" gradientUnits="userSpaceOnUse">
<stop stop-color="#F2E8FF" stop-opacity="0"/>
<stop offset="0.802691" stop-color="#F2E8FF"/>
<stop offset="1" stop-color="#F2E8FF" stop-opacity="0"/>
</linearGradient>
</defs>
</svg>

<svg width="32" height="32" fill="none" xmlns="http://www.w3.org/2000/svg"><g filter="url(#a)"><path d="M9.864 14.87 6.875 26.624h18l-2.739-11.756a6.3 6.3 0 0 0-12.272 0Z" fill="url(#b)"/></g><path d="M25.865 30H6.135C5.512 30 5 29.517 5 28.93v-2.86c0-.587.512-1.07 1.135-1.07h19.73c.623 0 1.135.483 1.135 1.07v2.86c0 .587-.502 1.07-1.135 1.07Z" fill="url(#c)"/><path d="M25.865 30H6.135C5.512 30 5 29.517 5 28.93v-2.86c0-.587.512-1.07 1.135-1.07h19.73c.623 0 1.135.483 1.135 1.07v2.86c0 .587-.502 1.07-1.135 1.07Z" fill="url(#d)"/><path d="M25.865 30H6.135C5.512 30 5 29.517 5 28.93v-2.86c0-.587.512-1.07 1.135-1.07h19.73c.623 0 1.135.483 1.135 1.07v2.86c0 .587-.502 1.07-1.135 1.07Z" fill="url(#e)"/><path d="M25.865 30H6.135C5.512 30 5 29.517 5 28.93v-2.86c0-.587.512-1.07 1.135-1.07h19.73c.623 0 1.135.483 1.135 1.07v2.86c0 .587-.502 1.07-1.135 1.07Z" fill="url(#f)"/><path d="M19.895 15.82c.799-.46.976-1.648.396-2.652-.58-1.005-1.698-1.445-2.496-.984-.798.46-.975 1.648-.395 2.653.58 1.004 1.697 1.445 2.495.984Z" fill="url(#g)"/><g filter="url(#h)"><rect x="15" y="2" width="2" height="6" rx="1" fill="url(#i)"/><rect x="15" y="2" width="2" height="6" rx="1" fill="url(#j)"/><rect x="15" y="2" width="2" height="6" rx="1" fill="url(#k)"/></g><g filter="url(#l)"><path d="M24.232 5.303a1.036 1.036 0 0 1 1.465 1.465l-2.93 2.929a1.036 1.036 0 0 1-1.464-1.465l2.93-2.929Z" fill="url(#m)"/><path d="M24.232 5.303a1.036 1.036 0 0 1 1.465 1.465l-2.93 2.929a1.036 1.036 0 0 1-1.464-1.465l2.93-2.929Z" fill="url(#n)"/><path d="M24.232 5.303a1.036 1.036 0 0 1 1.465 1.465l-2.93 2.929a1.036 1.036 0 0 1-1.464-1.465l2.93-2.929Z" fill="url(#o)"/></g><g filter="url(#p)"><path d="M7.768 5.303a1.036 1.036 0 0 0-1.465 1.465l2.93 2.929a1.036 1.036 0 0 0 1.464-1.465l-2.93-2.929Z" fill="url(#q)"/></g><g filter="url(#r)"><path d="M26.344 25.75H11.75" stroke="url(#s)" stroke-width=".5"/></g><defs><linearGradient id="b" x1="11.063" y1="20.75" x2="23.813" y2="20.75" gradientUnits="userSpaceOnUse"><stop stop-color="#F8312F"/><stop offset="1" stop-color="#FF5BA6"/></linearGradient><linearGradient id="c" x1="5.313" y1="27.5" x2="25.875" y2="27.5" gradientUnits="userSpaceOnUse"><stop stop-color="#9186A2"/><stop offset=".173" stop-color="#A88EC7"/><stop offset="1" stop-color="#EEE0FF"/></linearGradient><linearGradient id="d" x1="27" y1="27.5" x2="25.25" y2="27.5" gradientUnits="userSpaceOnUse"><stop stop-color="#DCD5E7"/><stop offset="1" stop-color="#DCD5E7" stop-opacity="0"/></linearGradient><linearGradient id="e" x1="16" y1="30" x2="16" y2="28.875" gradientUnits="userSpaceOnUse"><stop stop-color="#CC8BFF"/><stop offset="1" stop-color="#CC8BFF" stop-opacity="0"/></linearGradient><linearGradient id="f" x1="16" y1="24" x2="16" y2="25.938" gradientUnits="userSpaceOnUse"><stop stop-color="#D8CFD4"/><stop offset="1" stop-color="#D8CFD4" stop-opacity="0"/></linearGradient><linearGradient id="g" x1="18.375" y1="12.313" x2="18.563" y2="15.875" gradientUnits="userSpaceOnUse"><stop stop-color="#FFF8FF"/><stop offset="1" stop-color="#FFF8FF" stop-opacity="0"/></linearGradient><linearGradient id="i" x1="15" y1="5" x2="17" y2="5" gradientUnits="userSpaceOnUse"><stop stop-color="#F19E41"/><stop offset="1" stop-color="#FFF657"/></linearGradient><linearGradient id="j" x1="16" y1="2" x2="16" y2="3.069" gradientUnits="userSpaceOnUse"><stop stop-color="#FFF053"/><stop offset="1" stop-color="#FFF053" stop-opacity="0"/></linearGradient><linearGradient id="k" x1="16.624" y1="8.318" x2="16.624" y2="7.03" gradientUnits="userSpaceOnUse"><stop stop-color="#EE8228"/><stop offset="1" stop-color="#EE8228" stop-opacity="0"/></linearGradient><linearGradient id="m" x1="22.483" y1="6.814" x2="24.156" y2="8.488" gradientUnits="userSpaceOnUse"><stop stop-color="#F19E41"/><stop offset="1" stop-color="#FFF657"/></linearGradient><linearGradient id="n" x1="26.266" y1="5.456" x2="25.054" y2="6.669" gradientUnits="userSpaceOnUse"><stop offset=".2" stop-color="#FFF45D"/><stop offset="1" stop-color="#FFF45D" stop-opacity="0"/></linearGradient><linearGradient id="o" x1="21.378" y1="10" x2="22.269" y2="9.077" gradientUnits="userSpaceOnUse"><stop stop-color="#F56A34"/><stop offset="1" stop-color="#F56A34" stop-opacity="0"/></linearGradient><linearGradient id="q" x1="7.672" y1="8.203" x2="8.984" y2="6.891" gradientUnits="userSpaceOnUse"><stop stop-color="#F19E41"/><stop offset="1" stop-color="#FFF657"/></linearGradient><linearGradient id="s" x1="12.313" y1="26.125" x2="26.688" y2="26.125" gradientUnits="userSpaceOnUse"><stop stop-color="#F2E8FF" stop-opacity="0"/><stop offset=".803" stop-color="#F2E8FF"/><stop offset="1" stop-color="#F2E8FF" stop-opacity="0"/></linearGradient><filter id="a" x="6.875" y="10" width="19.5" height="16.625" filterUnits="userSpaceOnUse" color-interpolation-filters="sRGB"><feFlood flood-opacity="0" result="BackgroundImageFix"/><feBlend in="SourceGraphic" in2="BackgroundImageFix" result="shape"/><feColorMatrix in="SourceAlpha" values="0 0 0 0 0 0 0 0 0 0 0 0 0 0 0 0 0 0 127 0" result="hardAlpha"/><feOffset dx="1.5"/><feGaussianBlur stdDeviation="1.25"/><feComposite in2="hardAlpha" operator="arithmetic" k2="-1" k3="1"/><feColorMatrix values="0 0 0 0 0.611765 0 0 0 0 0.27451 0 0 0 0 0.286275 0 0 0 1 0"/><feBlend in2="shape" result="effect1_innerShadow_18_11962"/></filter><filter id="h" x="15" y="1.75" width="2.25" height="6.25" filterUnits="userSpaceOnUse" color-interpolation-filters="sRGB"><feFlood flood-opacity="0" result="BackgroundImageFix"/><feBlend in="SourceGraphic" in2="BackgroundImageFix" result="shape"/><feColorMatrix in="SourceAlpha" values="0 0 0 0 0 0 0 0 0 0 0 0 0 0 0 0 0 0 127 0" result="hardAlpha"/><feOffset dx=".25" dy="-.25"/><feGaussianBlur stdDeviation=".3"/><feComposite in2="hardAlpha" operator="arithmetic" k2="-1" k3="1"/><feColorMatrix values="0 0 0 0 0.784314 0 0 0 0 0.443137 0 0 0 0 0.372549 0 0 0 1 0"/><feBlend in2="shape" result="effect1_innerShadow_18_11962"/></filter><filter id="l" x="21" y="4.75" width="5.25" height="5.25" filterUnits="userSpaceOnUse" color-interpolation-filters="sRGB"><feFlood flood-opacity="0" result="BackgroundImageFix"/><feBlend in="SourceGraphic" in2="BackgroundImageFix" result="shape"/><feColorMatrix in="SourceAlpha" values="0 0 0 0 0 0 0 0 0 0 0 0 0 0 0 0 0 0 127 0" result="hardAlpha"/><feOffset dx=".25" dy="-.25"/><feGaussianBlur stdDeviation=".3"/><feComposite in2="hardAlpha" operator="arithmetic" k2="-1" k3="1"/><feColorMatrix values="0 0 0 0 0.784314 0 0 0 0 0.443137 0 0 0 0 0.372549 0 0 0 1 0"/><feBlend in2="shape" result="effect1_innerShadow_18_11962"/></filter><filter id="p" x="6" y="4.75" width="5.25" height="5.25" filterUnits="userSpaceOnUse" color-interpolation-filters="sRGB"><feFlood flood-opacity="0" result="BackgroundImageFix"/><feBlend in="SourceGraphic" in2="BackgroundImageFix" result="shape"/><feColorMatrix in="SourceAlpha" values="0 0 0 0 0 0 0 0 0 0 0 0 0 0 0 0 0 0 127 0" result="hardAlpha"/><feOffset dx=".25" dy="-.25"/><feGaussianBlur stdDeviation=".3"/><feComposite in2="hardAlpha" operator="arithmetic" k2="-1" k3="1"/><feColorMatrix values="0 0 0 0 0.784314 0 0 0 0 0.443137 0 0 0 0 0.372549 0 0 0 1 0"/><feBlend in2="shape" result="effect1_innerShadow_18_11962"/></filter><filter id="r" x="11.25" y="25" width="15.594" height="1.5" filterUnits="userSpaceOnUse" color-interpolation-filters="sRGB"><feFlood flood-opacity="0" result="BackgroundImageFix"/><feBlend in="SourceGraphic" in2="BackgroundImageFix" result="shape"/><feGaussianBlur stdDeviation=".25" result="effect1_foregroundBlur_18_11962"/></filter></defs></svg>
